resources/svg/html5-o.svg

<svg xmlns="http://www.w3.org/2000/svg" viewBox="0 0 15 15" fill="none"><path d="M0.5 0.5V0C0.360174 0 0.226736 0.0585498 0.132059 0.161445C0.0373814 0.264341 -0.00988477 0.40218 0.00172713 0.541523L0.5 0.5ZM14.5 0.5L14.9983 0.541523C15.0099 0.40218 14.9626 0.264341 14.8679 0.161445C14.7733 0.0585498 14.6398 0 14.5 0V0.5ZM13.5 12.5L13.6581 12.9743C13.8479 12.9111 13.9817 12.7408 13.9983 12.5415L13.5 12.5ZM7.5 14.5L7.34189 14.9743C7.44452 15.0086 7.55548 15.0086 7.65811 14.9743L7.5 14.5ZM1.5 12.5L1.00173 12.5415C1.01834 12.7408 1.15214 12.9111 1.34189 12.9743L1.5 12.5ZM4.5 3.5V3H4V3.5H4.5ZM4.5 6.5H4V7H4.5V6.5ZM10.5 6.5H11V6H10.5V6.5ZM10.5 9.5L10.6581 9.97434L11 9.86038V9.5H10.5ZM7.5 10.5L7.34189 10.9743L7.5 11.027L7.65811 10.9743L7.5 10.5ZM4.5 9.5H4V9.86038L4.34189 9.97434L4.5 9.5ZM0.5 1H14.5V0H0.5V1ZM14.0017 0.458477L13.0017 12.4585L13.9983 12.5415L14.9983 0.541523L14.0017 0.458477ZM13.3419 12.0257L7.34189 14.0257L7.65811 14.9743L13.6581 12.9743L13.3419 12.0257ZM7.65811 14.0257L1.65811 12.0257L1.34189 12.9743L7.34189 14.9743L7.65811 14.0257ZM1.99827 12.4585L0.998273 0.458477L0.00172713 0.541523L1.00173 12.5415L1.99827 12.4585ZM11 3H4.5V4H11V3ZM4 3.5V6.5H5V3.5H4ZM4.5 7H10.5V6H4.5V7ZM10 6.5V9.5H11V6.5H10ZM10.3419 9.02566L7.34189 10.0257L7.65811 10.9743L10.6581 9.97434L10.3419 9.02566ZM7.65811 10.0257L4.65811 9.02566L4.34189 9.97434L7.34189 10.9743L7.65811 10.0257ZM5 9.5V8H4V9.5H5Z" fill="black"/></svg>

<svg xmlns="http://www.w3.org/2000/svg" viewBox="0 0 15 15" fill="none"><path d="M.5.5V0a.5.5 0 00-.498.542L.5.5zm14 0l.498.042A.5.5 0 0014.5 0v.5zm-1 12l.158.474a.5.5 0 00.34-.433L13.5 12.5zm-6 2l-.158.474a.499.499 0 00.316 0L7.5 14.5zm-6-2l-.498.041a.5.5 0 00.34.433L1.5 12.5zm3-9V3H4v.5h.5zm0 3H4V7h.5v-.5zm6 0h.5V6h-.5v.5zm0 3l.158.474L11 9.86V9.5h-.5zm-3 1l-.158.474.158.053.158-.053L7.5 10.5zm-3-1H4v.36l.342.114L4.5 9.5zM.5 1h14V0H.5v1zM14.002.458l-1 12 .996.083 1-12-.996-.083zm-.66 11.568l-6 2 .316.948 6-2-.316-.948zm-5.684 2l-6-2-.316.948 6 2 .316-.948zm-5.66-1.567l-1-12-.996.083 1 12 .996-.083zM11 3H4.5v1H11V3zm-7 .5v3h1v-3H4zM4.5 7h6V6h-6v1zm5.5-.5v3h1v-3h-1zm.342 2.526l-3 1 .316.948 3-1-.316-.948zm-2.684 1l-3-1-.316.948 3 1 .316-.948zM5 9.5V8H4v1.5h1z" fill="currentColor"/></svg>
